material/.icons/material/ribbon.svg

<svg xmlns="http://www.w3.org/2000/svg" viewBox="0 0 24 24"><path d="M13.41 19.31l3.18 3.19L18 21.07l-3.17-3.17m.71-6.37h-.01L12 15.07l-3.53-3.54h-.01A4.98 4.98 0 017 8a5 5 0 015-5 5 5 0 015 5c0 1.38-.56 2.63-1.46 3.53M16.9 13A6.96 6.96 0 0019 8a7 7 0 00-7-7 7 7 0 00-7 7c0 1.96.81 3.73 2.1 5l3.49 3.5L6 21.07l1.41 1.43L16.9 13z"/></svg>

<?xml version="1.0" encoding="UTF-8"?><!DOCTYPE svg PUBLIC "-//W3C//DTD SVG 1.1//EN" "http://www.w3.org/Graphics/SVG/1.1/DTD/svg11.dtd"><svg xmlns="http://www.w3.org/2000/svg" xmlns:xlink="http://www.w3.org/1999/xlink" version="1.1" id="mdi-ribbon" width="24" height="24" viewBox="0 0 24 24"><path d="M13.41,19.31L16.59,22.5L18,21.07L14.83,17.9M15.54,11.53H15.53L12,15.07L8.47,11.53H8.46V11.53C7.56,10.63 7,9.38 7,8A5,5 0 0,1 12,3A5,5 0 0,1 17,8C17,9.38 16.44,10.63 15.54,11.53M16.9,13C18.2,11.73 19,9.96 19,8A7,7 0 0,0 12,1A7,7 0 0,0 5,8C5,9.96 5.81,11.73 7.1,13V13L10.59,16.5L6,21.07L7.41,22.5L16.9,13Z" /></svg>
